X:1
T:Partition sans titre
C:Compositeur / Arrangeur
L:1/8
M:2/4
I:linebreak $
K:G
V:1 treble nm="Violon" snm="Vln."
V:1
 BAGB |[M:4/4]"G" d2 de dBGB | G3 B BAGB | d2 de dBAG |"D" A3 A BAGB |"G" d2 de dBGB | G3 B BAGB | %7
 g2 Pf2 e2 d2 | BAGB"D" A3 A ::[K:D]"A" e2 Ae eede | fedf edBc |"G" B2 dd edcd | gg Pf2 efed | %13
"A" e2 Ae eede | fedf edBc |"G" B2 dd edcd | gg Pf2 efed | BAGB"A" A3 A :| %18
